!!!COM: Palestrina, Giovanni Perluigi da
!!!OPR: Missa Alma Redemptoris mater
!!!OMD: Credo
!!!OTL: Et unam sanctam
**kern	**kern	**kern	**kern	**kern	**kern
*Ibass	*Ibass	*Itenor	*Icalto	*Icalto	*Icant
!Bassus 2	!Bassus 1	!Tenor	!Altus 2	!Altus 1	!Cantus
*clefF4	*clefF4	*clefGv2	*clefG2	*clefG2	*clefG2
*k[b-]	*k[b-]	*k[b-]	*k[b-]	*k[b-]	*k[b-]
*F:ion	*F:ion	*F:ion	*F:ion	*F:ion	*F:ion
*M4/2	*M4/2	*M4/2	*M4/2	*M4/2	*M4/2
=156	=156	=156	=156	=156	=156
0r	1F	1f	1a	0r	0r
.	2A	2f	2a	.	.
.	2B-	2f	2d	.	.
=157	=157	=157	=157	=157	=157
1r	1c	1e	1g	1r	1r
2r	2.F	2f	2a	2r	1ff
2F	.	2c	2f	2a	.
.	4E	.	.	.	.
=158	=158	=158	=158	=158	=158
2A	2D	2d	2.f	2a	2ff
2B-	2D	2d	.	2d	2ff
.	.	.	4d	.	.
1c	1C	2G	4e	1g	1ee
.	.	.	4d	.	.
.	.	[2c	4c	.	.
.	.	.	4B-	.	.
=159	=159	=159	=159	=159	=159
2.F	0r	2c]	4A	2a	2ff
.	.	.	4B-	.	.
.	.	1A	1c	2a	2cc
4E	.	.	.	.	.
2D	.	.	.	2f	2dd
2D	.	2F	2B	2f	2dd
=160	=160	=160	=160	=160	=160
0C	2r	2G	1c	2e	1g
.	2c	2g	.	2e	.
.	2.c	2g	1r	2e	2r
.	.	2e	.	2g	2cc
.	4B-	.	.	.	.
=161	=161	=161	=161	=161	=161
0r	2A	2f	0r	2a	2cc
.	2G	2g	.	2d	2b-
.	2A	2c	.	4f	2a
.	.	.	.	4e	.
.	2B-	2f	.	4d	2f
.	.	.	.	4c	.
=162	=162	=162	=162	=162	=162
1r	2G	2f	1r	2B-	2g
.	2G	2e	.	2B-	2g
2r	1F	1f	2r	2c	2.a
2F	.	.	2a	2c	.
.	.	.	.	.	4b-
=163	=163	=163	=163	=163	=163
2.F	0r	2r	2.a	2A	1cc
.	.	2A	.	2c	.
4E	.	.	4g	.	.
2D	.	2B-	2f	2d	1r
2C	.	2c	2e	2e	.
=164	=164	=164	=164	=164	=164
2D	0r	2A	2d	2f	0r
2E-	.	2G	2c	2g	.
2D	.	2A	2d	2f	.
2BB-	.	2B-	2d	2f	.
=165	=165	=165	=165	=165	=165
1C	2r	2G	1c	2.e	2r
.	2c	2A	.	.	2cc
.	.	.	.	4c	.
1r	2c	1G	2r	1g	2dd
.	2B-	.	2g	.	2dd
=166	=166	=166	=166	=166	=166
2r	1c	2r	2.g	1r	1ee
2c	.	2c	.	.	.
.	.	.	4g	.	.
2c	1G	2d	1g	2r	2dd
2B-	.	2d	.	2g	4gg
.	.	.	.	.	4ff
=167	=167	=167	=167	=167	=167
1c	2C	1e	2r	2.g	4ee
.	.	.	.	.	4dd
.	2C	.	1cc	.	4cc
.	.	.	.	4g	4b-
1r	1D	2r	.	1f	2a
.	.	[2f	2b-	.	2f
=168	=168	=168	=168	=168	=168
1c	1C	2f]	2a	2r	1cc
.	.	2e	2.g	1cc	.
2G	1r	1d	.	.	1dd
.	.	.	4f	.	.
2G	.	.	4d	2b-	.
.	.	.	4e	.	.
=169	=169	=169	=169	=169	=169
1A	1r	1c	2f	2a	1r
.	.	.	2e	1cc	.
1G	2r	[1d	1g	.	2r
.	[2G	.	.	4b-	[2g
.	.	.	.	4a	.
=170	=170	=170	=170	=170	=170
0r	2G]	1d]	1d	2b-	2g]
.	2F#	.	.	2a	2a
.	2G	1r	2d	2.g	2b
.	2C	.	2e-	.	2cc
.	.	.	.	4g	.
=171	=171	=171	=171	=171	=171
2r	1G	2r	1d	2b-	1dd
1G	.	2G	.	2b-	.
.	1D	1A	1d	1a	1dd
2F#	.	.	.	.	.
=172	=172	=172	=172	=172	=172
2G	2r	2B	2d	1g	1r
2C	1c	2c	2e-	.	.
1G	.	1d	2d	2.g	1dd
.	2B	.	2G	.	.
.	.	.	.	4f	.
=173	=173	=173	=173	=173	=173
2C	1c	2e	2g	4e	1cc
.	.	.	.	4d	.
1F	.	1a	2f	1c	.
.	1C	.	1g	.	1cc
2E	.	[2g	.	2c	.
=174	=174	=174	=174	=174	=174
1F	0r	2g]	1a	1A	[0cc
.	.	1f	.	.	.
[1C	.	.	[1g	1c	.
.	.	4e	.	.	.
.	.	4d	.	.	.
=175	=175	=175	=175	=175	=175
0C]	0c	2.e	1g]	2r	1cc]
.	.	.	.	1g	.
.	.	4d	.	.	.
.	.	4e	1r	.	2r
.	.	4f	.	.	.
.	.	2g	.	[2e	[2cc
=176	=176	=176	=176	=176	=176
0r	1A	1c	0r	2e]	2cc]
.	.	.	.	2.f	2a
.	1G	2r	.	.	1b-
.	.	.	.	8e	.
.	.	.	.	8d	.
.	.	2B-	.	2e	.
=177	=177	=177	=177	=177	=177
0F	1F	2d	2r	2.f	2.a
.	.	2.c	2.a	.	.
.	.	.	.	4g	4b-
.	2r	.	.	1a	1cc
.	.	4B-	4g	.	.
.	2F	4A	[2f	.	.
.	.	4G	.	.	.
=178	=178	=178	=178	=178	=178
1D	2F	2A	2f]	0r	2.ff
.	1B-	2B-	2d	.	.
.	.	.	.	.	4ff
1C	.	1c	1e-	.	2ee-
.	2A	.	.	.	2cc
=179	=179	=179	=179	=179	=179
1BB-	1B-	2.f	1d	2r	1dd
.	.	.	.	1b-	.
.	.	4f	.	.	.
2r	1F	2f	1r	.	1cc
2F	.	2c	.	2a	.
=180	=180	=180	=180	=180	=180
2F	2D	1d	2.f	2a	0r
1B-	2BB-	.	.	2b-	.
.	.	.	4f	.	.
.	1F	1c	2f	2cc	.
2A	.	.	2c	2f	.
=181	=181	=181	=181	=181	=181
1B-	1BB-	2r	1d	1.f	2.ff
.	.	1B-	.	.	.
.	.	.	.	.	4ff
1F	1r	.	1c	.	2ff
.	.	2A	.	2f	2cc
=182	=182	=182	=182	=182	=182
2D	0r	1B-	2r	4f	1dd
.	.	.	.	4e	.
2BB-	.	.	1B-	4d	.
.	.	.	.	4e	.
[1F	.	1c	.	4f	1cc
.	.	.	.	4g	.
.	.	.	2A	[2a	.
=183	=183	=183	=183	=183	=183
2F]	0r	2F	8A	2a]	2cc
.	.	.	8G	.	.
.	.	.	8A	.	.
.	.	.	8B-	.	.
2E	.	2G	1c	2g	2cc
1D	.	2A	.	1f	1dd
.	.	2F	2B	.	.
=184	=184	=184	=184	=184	=184
0C	1r	1G	1c	0e	1g
.	1c	1r	1g	.	1cc
=185	=185	=185	=185	=185	=185
0r	1B-	1f	1b-	0r	1dd
.	1c	1e	2g	.	2cc
.	.	.	[2c	.	2g
=186	=186	=186	=186	=186	=186
0r	1F	1f	2c]	0r	2a
.	.	.	2.d	.	2a
.	2G	2r	.	.	2b-
.	.	.	4e	.	.
.	2A	2c	[2f	.	4a
.	.	.	.	.	4g
=187	=187	=187	=187	=187	=187
0r	1B-	1d	2f]	0r	2f
.	.	.	2d	.	2g
.	1A	2e	1c	.	1a
.	.	[2f	.	.	.
=188	=188	=188	=188	=188	=188
1r	0G	2f]	1g	1r	2b
.	.	2e	.	.	1cc
1G	.	1d	2g	2r	.
.	.	.	2d	2g	2b
=189	=189	=189	=189	=189	=189
1F	0r	2r	1f	1a	1cc
.	.	2c	.	.	.
1G	.	1B	1d	1g	2r
.	.	.	.	.	2dd
=190	=190	=190	=190	=190	=190
1C	0r	1c	1e-	1g	1cc
2D	.	1F	1d	2f	2a
2D	.	.	.	2f	2b-
=191	=191	=191	=191	=191	=191
2E	0r	2G	1c	2e	2cc
2F	.	2A	.	2c	2cc
1BB-	.	1B-	2.d	2f	2b-
.	.	.	.	[2g	2dd
.	.	.	4d	.	.
=192	=192	=192	=192	=192	=192
0C	1r	2A	2e	2g]	1cc
.	.	2A	2f	1f	.
.	2r	1G	1g	.	1cc
.	2C	.	.	2e	.
=193	=193	=193	=193	=193	=193
2F	2.D	1F	2r	[0f	0a
2F	.	.	2d	.	.
.	4E	.	.	.	.
2A	2F	2r	2c	.	.
2A	2F	[2f	2c	.	.
=194	=194	=194	=194	=194	=194
2B-	2BB-	2f]	2d	0f]	2r
2BB-	1B-	2d	2B-	.	2.ff
1F	.	2c	1c	.	.
.	.	.	.	.	4ee
.	2A	[2f	.	.	2cc
=195	=195	=195	=195	=195	=195
0BB-	0B-	4f]	4B-	[0f	1dd
.	.	4e	4c	.	.
.	.	4d	4d	.	.
.	.	4c	4e	.	.
.	.	1d	2f	.	1b-
.	.	.	2g	.	.
=196	=196	=196	=196	=196	=196
0F	0A	0c	0a	0f]	0cc
==	==	==	==	==	==
*-	*-	*-	*-	*-	*-
!!!CDT: 1525/^1526/-1594/2/2
!!!OCY: Italia
!!!AGN: Mass (Paraphrase)
!!!AST: renaissance, vocal
!!!ASW: Antiphon
!!!PWK: Masses, Book 11
!!!RNB: Cadence finals: C
!!!YOR: Le Opere Complete, v. 28, p. 148
!!!YOO: Rome, Italy: Fratelli Scalera
!!!END: 1992//
!!!EED: John Miller
!!!YEC: Copyright 2000, John Miller
!!!YEN: United States of America
!!!YEM: Rights to all derivative electronic formats reserved.
!!!YEM: Refer to licensing agreement for further details.
!!!YEM: This file must be accompanied by the licensing agreement.
!!!YEM: A copy of the licensing agreement may be found at http://www.music-cog.ohio-state.edu/HumdrumDatabases/Palestrina/license.txt
!!!EMD: converted to Humdrum by Bret Aarden
